X:193
T:Jockey to the Fair THO4.193
M:6/8
L:1/8
Z:vmp. Peter Dunk 2010/11.from a transcription by Fynn Titford-Mock 2007
B:Thompson's Compleat Collection of 200 Favourite Country Dances Volume IV.
Q:3/8=120
K:G
D|G2 A B2 c|d2 g d2 c|BdG GFG| A/B/cB A2 d|\
d^cd efg|faf e2 g|fed Ad^c|d3-d2:|
|:d|afd afd|c2 c B2 c|dgd dgd|dcB A2 A|\
G2 G B2 d| g3 e3|dBG AcA|G3-G2:|
